src/assets/icons/favicon.svg

<?xml version="1.0" encoding="UTF-8" standalone="no"?>
<!DOCTYPE svg PUBLIC "-//W3C//DTD SVG 1.1//EN" "http://www.w3.org/Graphics/SVG/1.1/DTD/svg11.dtd">
<svg width="100%" height="100%" viewBox="0 0 512 512" version="1.1" xmlns="http://www.w3.org/2000/svg" xmlns:xlink="http://www.w3.org/1999/xlink" xml:space="preserve" xmlns:serif="http://www.serif.com/" style="fill-rule:evenodd;clip-rule:evenodd;stroke-linejoin:round;stroke-miterlimit:2;">
    <path d="M512,100C512,44.808 467.192,0 412,0L100,0C44.808,0 0,44.808 0,100L0,412C0,467.192 44.808,512 100,512L412,512C467.192,512 512,467.192 512,412L512,100ZM423.16,306.6C408.58,292.5 386.36,283.22 357.16,279.01C342.67,276.94 331.16,273.81 322.8,269.7C315.11,265.9 309.62,261.48 306.51,256.54C303.418,251.715 301.801,246.09 301.86,240.36C301.86,229.07 305.86,220.78 314.13,215.01C323.22,208.67 335.7,205.46 351.24,205.44C360.13,205.65 367.74,206.92 373.85,209.21C379.489,211.236 384.69,214.321 389.17,218.3C393.286,222.034 396.923,226.262 400,230.89C405.797,240.726 418.278,244.578 428.61,239.72L429.22,239.41C434.195,236.677 437.771,231.943 439.04,226.41C439.93,222.59 440.09,216.61 435.85,209.81C430.494,201.269 423.834,193.619 416.11,187.14C398.063,171.986 375.153,163.819 351.59,164.14C334.19,164.14 318.49,167.14 304.91,172.94C290.97,178.94 279.82,187.61 271.79,198.74C263.6,210.09 259.44,223.55 259.44,238.74C259.44,259.92 267.75,278.01 284.12,292.53C299.92,306.53 321.84,315.3 349.22,318.53C368.43,320.93 382.49,326.38 391.03,334.72C399.34,342.86 403.38,352.25 403.38,363.44C403.38,372.34 401.38,379.58 397.13,385.57C392.68,391.843 386.517,396.704 379.38,399.57C371.43,402.96 362.08,404.68 351.59,404.68C342.587,404.772 333.622,403.5 325,400.91C317.719,398.741 310.901,395.246 304.89,390.6C299.818,386.715 295.628,381.796 292.6,376.17C290.357,371.609 286.702,367.891 282.18,365.57C277.522,363.087 272.079,362.503 267,363.94C259.27,366.09 255.37,370.65 253.46,374.09C250.46,379.45 250.46,385.66 253.4,391.6C258.664,402.732 266.28,412.593 275.72,420.5C285.75,428.909 297.289,435.334 309.72,439.43C323.237,443.896 337.395,446.116 351.63,446C363.873,446.072 376.055,444.264 387.75,440.64C398.732,437.287 408.992,431.911 418,424.79C426.806,417.72 433.849,408.699 438.57,398.44C443.37,388.1 445.8,376.21 445.8,363.12C445.75,340.12 438.15,321.1 423.16,306.6ZM237.59,111.81C229.758,97.751 218.195,86.122 204.18,78.21C190,70.15 173.67,66.07 155.52,66.07L87.75,66.07C87.588,66.066 87.426,66.064 87.264,66.064C75.547,66.064 65.904,75.707 65.904,87.424C65.904,87.586 65.906,87.748 65.91,87.91L65.91,326.12C65.907,326.276 65.905,326.432 65.905,326.587C65.905,338.574 75.768,348.437 87.755,348.437C99.742,348.437 109.605,338.574 109.605,326.587C109.605,326.432 109.603,326.276 109.6,326.12L109.6,254.44L155.52,254.44C173.68,254.44 190.05,250.35 204.18,242.3C218.156,234.425 229.71,222.868 237.58,208.89C245.51,194.89 249.58,178.68 249.58,160.76C249.54,142.41 245.52,125.94 237.59,111.81ZM155.52,211.81L109.6,211.81L109.6,108.81L155.52,108.81C165.6,108.81 174.28,110.98 182.05,115.45C189.607,119.703 195.839,125.969 200.05,133.55C204.38,141.24 206.57,150.42 206.57,160.83C206.714,170.096 204.45,179.242 200,187.37C195.845,194.895 189.645,201.095 182.12,205.25C173.969,209.693 164.801,211.94 155.52,211.77L155.52,211.81Z" style="fill:url(#_Linear1);"/>
    <defs>
        <linearGradient id="_Linear1" x1="0" y1="0" x2="1" y2="0" gradientUnits="userSpaceOnUse" gradientTransform="matrix(453.42,453.42,-453.42,453.42,29.29,29.29)"><stop offset="0" style="stop-color:rgb(124,92,215);stop-opacity:1"/><stop offset="1" style="stop-color:rgb(161,222,225);stop-opacity:1"/></linearGradient>
    </defs>
</svg>

<svg id="Layer_1" data-name="Layer 1" xmlns="http://www.w3.org/2000/svg" xmlns:xlink="http://www.w3.org/1999/xlink" viewBox="0 0 512 512"><defs><style>.cls-1{fill:url(#linear-gradient);}.cls-2{fill:#fff;}</style><linearGradient id="linear-gradient" x1="29.29" y1="29.29" x2="482.71" y2="482.71" gradientUnits="userSpaceOnUse"><stop offset="0" stop-color="#0082d9"/><stop offset="1" stop-color="#00c58f"/></linearGradient></defs><rect class="cls-1" width="512" height="512" rx="100"/><path class="cls-2" d="M237.59,111.81a87.47,87.47,0,0,0-33.41-33.6C190,70.15,173.67,66.07,155.52,66.07H87.75A21.36,21.36,0,0,0,65.91,87.91V326.12a21.85,21.85,0,1,0,43.69,0V254.44h45.92c18.16,0,34.53-4.09,48.66-12.14a87.78,87.78,0,0,0,33.4-33.41c7.93-14,12-30.21,12-48.13C249.54,142.41,245.52,125.94,237.59,111.81Zm-82.07,100H109.6v-103h45.92c10.08,0,18.76,2.17,26.53,6.64a46.9,46.9,0,0,1,18,18.1c4.33,7.69,6.52,16.87,6.52,27.28A53.53,53.53,0,0,1,200,187.37a45.61,45.61,0,0,1-17.88,17.88A53.53,53.53,0,0,1,155.52,211.77Z"/><path class="cls-2" d="M423.16,306.6c-14.58-14.1-36.8-23.38-66-27.59-14.49-2.07-26-5.2-34.36-9.31-7.69-3.8-13.18-8.22-16.29-13.16a29.43,29.43,0,0,1-4.65-16.18c0-11.29,4-19.58,12.27-25.35,9.09-6.34,21.57-9.55,37.11-9.57,8.89.21,16.5,1.48,22.61,3.77a47,47,0,0,1,15.32,9.09A67.32,67.32,0,0,1,400,230.89a22.23,22.23,0,0,0,28.61,8.83l.61-.31a19.91,19.91,0,0,0,9.82-13c.89-3.82,1.05-9.8-3.19-16.6a96.51,96.51,0,0,0-19.74-22.67,98.25,98.25,0,0,0-64.52-23c-17.4,0-33.1,3-46.68,8.8-13.94,6-25.09,14.67-33.12,25.8-8.19,11.35-12.35,24.81-12.35,40,0,21.18,8.31,39.27,24.68,53.79,15.8,14,37.72,22.77,65.1,26,19.21,2.4,33.27,7.85,41.81,16.19,8.31,8.14,12.35,17.53,12.35,28.72,0,8.9-2,16.14-6.25,22.13a40.07,40.07,0,0,1-17.75,14c-7.95,3.39-17.3,5.11-27.79,5.11A89.26,89.26,0,0,1,325,400.91a61.69,61.69,0,0,1-20.11-10.31,45.11,45.11,0,0,1-12.29-14.43,23.65,23.65,0,0,0-10.42-10.6A20.44,20.44,0,0,0,267,363.94c-7.73,2.15-11.63,6.71-13.54,10.15-3,5.36-3,11.57-.06,17.51a85.22,85.22,0,0,0,22.32,28.9,103.18,103.18,0,0,0,34,18.93A130.21,130.21,0,0,0,351.63,446a119.63,119.63,0,0,0,36.12-5.36A92.18,92.18,0,0,0,418,424.79a72.85,72.85,0,0,0,20.57-26.35c4.8-10.34,7.23-22.23,7.23-35.32C445.75,340.12,438.15,321.1,423.16,306.6Z"/></svg>
